svg/u1f518.svg

<svg viewBox="0 0 128 128" xmlns="http://www.w3.org/2000/svg">
  <path d="M63.87,4.1C23.86,5.15,2.21,34.84,4.22,67.67C6.08,98.01,31.27,124.21,65,123.64 c36.88-0.63,57.52-29.12,58.6-59.18C124.8,31.29,96.46,3.24,63.87,4.1z" fill="#868686"/>
  <path d="M64.26,17.53c-30.33,0.81-47.14,24.29-45.94,49.65c1.08,22.95,21.04,43.71,46.59,42.59 c26.09-1.14,43.26-21.54,44.43-45.68C110.57,38.5,88.96,16.87,64.26,17.53z" fill="#434C4E"/>
  <path d="M63.74,24.38c-25.97,0.68-39.71,19.97-38.62,41.93c0.95,19.3,18,36.2,39.9,35.83 c23.94-0.41,37.15-17.76,38.04-38.42C103.98,42.18,84.9,23.82,63.74,24.38z" fill="#B1B1B1"/>
  <path d="M32.06,58.16c2.5,0.81,4.18-7.65,12.9-14.67c8.71-7.01,18.22-7.42,17.98-11.37s-10.27-3.22-16.37,0.4 c-5.97,3.55-11.21,8.14-14.11,15.32C30.78,51.99,30.19,57.56,32.06,58.16z" fill="#DEDEDE"/>
  <path d="M39.96,14.78c-1.25-1.7-6.61-0.32-12.74,5.16c-5.15,4.61-7.74,10.48-5.81,12.17 c1.94,1.69,6.05-3.63,10.32-7.5S42.21,17.85,39.96,14.78z" fill="#B2B2B2"/>
  <path d="M110.51,84.37c-3.32-1.18-4.51,4.22-6.05,6.69c-6.93,11.13-16.53,16.46-22.17,18.95 c-3.47,1.53-6.61,1.61-5.56,5c0.81,2.61,6.45,0.41,8.39-0.4c3.47-1.45,10.16-5.17,15.4-9.92c5.08-4.6,8.42-9.26,10.16-13.87 C111.07,89.74,113,85.25,110.51,84.37z" fill="#B2B2B2"/>
</svg>

<svg viewBox="0 0 128 128" xmlns="http://www.w3.org/2000/svg">
  <defs/>
  <path d="M63.87,4.1 C23.86,5.15 2.21,34.84 4.22,67.67 C6.08,98.01 31.27,124.21 65,123.64 C101.88,123.01 122.52,94.52 123.6,64.46 C124.8,31.29 96.46,3.24 63.87,4.1 Z" fill="#868686"/>
  <path d="M64.26,17.53 C33.93,18.34 17.12,41.82 18.32,67.18 C19.4,90.13 39.36,110.89 64.91,109.77 C91,108.63 108.17,88.23 109.34,64.09 C110.57,38.5 88.96,16.87 64.26,17.53 Z" fill="#434C4E"/>
  <path d="M63.74,24.38 C37.77,25.06 24.03,44.35 25.12,66.31 C26.07,85.61 43.12,102.51 65.02,102.14 C88.96,101.73 102.17,84.38 103.06,63.72 C103.98,42.18 84.9,23.82 63.74,24.38 Z" fill="#B1B1B1"/>
  <path d="M32.06,58.16 C34.56,58.97 36.24,50.51 44.96,43.49 C53.67,36.48 63.18,36.07 62.94,32.12 C62.7,28.17 52.67,28.9 46.57,32.52 C40.6,36.07 35.36,40.66 32.46,47.84 C30.78,51.99 30.19,57.56 32.06,58.16 Z" fill="#DEDEDE"/>
  <path d="M39.96,14.78 C38.71,13.08 33.35,14.46 27.22,19.94 C22.07,24.55 19.48,30.42 21.41,32.11 C23.35,33.8 27.46,28.48 31.73,24.61 C36,20.74 42.21,17.85 39.96,14.78 Z" fill="#B2B2B2"/>
  <path d="M110.51,84.37 C107.19,83.19 106,88.59 104.46,91.06 C97.53,102.19 87.93,107.52 82.29,110.01 C78.82,111.54 75.68,111.62 76.73,115.01 C77.54,117.62 83.18,115.42 85.12,114.61 C88.59,113.16 95.28,109.44 100.52,104.69 C105.6,100.09 108.94,95.43 110.68,90.82 C111.07,89.74 113,85.25 110.51,84.37 Z" fill="#B2B2B2"/>
</svg>
